X: 28
T:Turkey In The Straw
M:2/4
L:1/16
R:Reel
N:http://www.lesession.co.uk
Z:Steve Mansfield 1998-2001
K:G
ba | gfga g2 Bc | dedB d2 ga | b2 b2 baga | b2 a2 a2 ba | 
gfga g2 Bc | dedB d2 GA | B2 d2 dBGA |1 B2 A2 G2 :|2 B2 A2 G4 |: 
B d2 B d2 d2 | B d2 B d4 | c e2 c e2 e2 | c e2 c e2 f2 | 
g2 g2 d2 d2 | B2 B2 G3 A | B2 d2 dBGA | B2 A2 G4 :|

